svgs/light/truck-container-empty.svg

<svg xmlns="http://www.w3.org/2000/svg" viewBox="0 0 640 512"><!--! Font Awesome Pro 6.4.0 by @fontawesome - https://fontawesome.com License - https://fontawesome.com/license (Commercial License) Copyright 2023 Fonticons, Inc. --><path d="M448 160c0-17.7 14.3-32 32-32h56c15.1 0 29.3 7.1 38.4 19.2l56 74.7c6.2 8.3 9.6 18.4 9.6 28.8V256v48 56c0 19.4-13.7 35.5-32 39.2l0 .8c0 44.2-35.8 80-80 80s-80-35.8-80-80H288c0 44.2-35.8 80-80 80c-26.2 0-49.4-12.6-64-32c-14.6 19.4-37.8 32-64 32c-44.2 0-80-35.8-80-80s35.8-80 80-80c26.2 0 49.4 12.6 64 32c14.6-19.4 37.8-32 64-32c32.8 0 61 19.7 73.3 48H448V256 240 224 160zm144 64l-43.2-57.6c-3-4-7.8-6.4-12.8-6.4H480v64H592zm16 32H480v80c13.4-10 30-16 48-16c32.8 0 60.9 19.7 73.3 47.9c3.8-.6 6.7-3.9 6.7-7.9V304 256zM528 448a48 48 0 1 0 0-96 48 48 0 1 0 0 96zM256 400a48 48 0 1 0 -96 0 48 48 0 1 0 96 0zM80 448a48 48 0 1 0 0-96 48 48 0 1 0 0 96z"/></svg>

<svg xmlns="http://www.w3.org/2000/svg" viewBox="0 0 640 512"><!--! Font Awesome Pro 6.3.0 by @fontawesome - https://fontawesome.com License - https://fontawesome.com/license (Commercial License) Copyright 2023 Fonticons, Inc. --><path d="M448 160C448 142.3 462.3 128 480 128H536C551.1 128 565.3 135.1 574.4 147.2L630.4 221.9C636.6 230.2 640 240.3 640 250.7V360C640 379.4 626.3 395.5 607.1 399.2L608 400C608 444.2 572.2 480 528 480C483.8 480 448 444.2 448 400H288C288 444.2 252.2 480 208 480C181.8 480 158.6 467.4 144 448C129.4 467.4 106.2 480 80 480C35.82 480 0 444.2 0 400C0 355.8 35.82 320 80 320C106.2 320 129.4 332.6 144 351.1C158.6 332.6 181.8 320 208 320C240.8 320 268.1 339.7 281.3 368H448V160zM592 224L548.8 166.4C545.8 162.4 541 160 536 160H480V224H592zM608 256H480V335.1C493.4 325.1 509.1 320 528 320C560.8 320 588.9 339.7 601.3 367.9C605.1 367.3 608 363.1 608 360V256zM528 448C554.5 448 576 426.5 576 400C576 373.5 554.5 352 528 352C501.5 352 480 373.5 480 400C480 426.5 501.5 448 528 448zM208 352C181.5 352 160 373.5 160 400C160 426.5 181.5 448 208 448C234.5 448 256 426.5 256 400C256 373.5 234.5 352 208 352zM80 448C106.5 448 128 426.5 128 400C128 373.5 106.5 352 80 352C53.49 352 32 373.5 32 400C32 426.5 53.49 448 80 448z"/></svg>
